icons/1_Primary/Brave.svg

<svg width="1024" height="1024" fill="none" xmlns="http://www.w3.org/2000/svg"><g clip-path="url(#a)"><path d="M512 1024c282.77 0 512-229.23 512-512S794.77 0 512 0 0 229.23 0 512s229.23 512 512 512Z" fill="#FF837D"/><path d="M586.5 266.2c3 0 5.9 1.3 7.8 3.6l38.4 44.3 1.5-.3c9.2-1.6 18.8-2.2 27.9-1.2 11.7 1.4 21.7 5.5 29.1 13 7.8 7.9 15.5 16 22.8 23.8 2.6 2.7 4.9 5.2 7 7.5.7.8 1.4 1.5 1.9 2.1 3.4 3.8 4.2 8.2 2.7 12l-9.9 24.8 13.2 38.4c.7 2 .8 4.2.2 6.2-.1.4-.1.4-.5 2.1-.6 2.4-.6 2.4-1.5 5.9-1.6 6.3-3.5 13.4-5.4 21-5.6 21.8-11.3 43.6-16.5 63.9-13 50.2-21.5 83.3-23.5 91.6-11.2 44.9-20 60.5-48.6 81-25.1 18-77.4 54-87.4 60.4-1 .6-2 1.3-3.4 2.3-.5.4-3.2 2.2-4 2.7-4.9 3.4-8.4 5.5-12.1 7.3-4.8 2.2-9.3 3.5-14 3.5-4.6 0-9.2-1.3-14-3.5-3.8-1.8-7.2-3.9-12.1-7.3-.8-.5-3.4-2.4-4-2.7-1.4-1-2.5-1.7-3.4-2.3-10.1-6.4-62.4-42.5-87.4-60.4-28.6-20.5-37.5-36.1-48.6-81a49557.957 49557.957 0 0 0-23.5-91.2c-5.4-20.7-11-42.5-16.6-64.3-2-7.6-3.8-14.7-5.5-21-.9-3.5-.9-3.5-1.5-5.9-.4-1.7-.4-1.7-.5-2.1-.5-2.1-.4-4.2.2-6.2l13.2-38.4-9.9-24.8c-1.5-3.8-.7-8.2 2-11.2 1.2-1.3 1.9-2 2.6-2.8 2.1-2.2 4.4-4.7 7-7.5 7.3-7.8 15-15.9 22.8-23.8 7.4-7.6 17.4-11.6 29.1-13 9.1-1.1 18.7-.5 27.9 1.2l1.5.3 38.4-44.3c2-2.3 4.8-3.6 7.8-3.6h148.8v-.1Zm-4.7 21.2H442.2l-39.3 45.5c-2.6 3.1-6.8 4.3-10.6 3.2-.2-.1-.7-.2-1.5-.4-1.3-.3-2.9-.6-4.6-.9-7.4-1.3-15-1.8-21.9-1-7.4.9-13.1 3.2-16.8 7-7.6 7.8-15.3 15.7-22.5 23.4-1.7 1.8-3.3 3.5-4.8 5.1l8.9 22.2c1 2.4 1 5.1.2 7.5l-13.4 39.1c.4 1.4.5 1.9 1.3 4.8 1.6 6.3 3.5 13.4 5.4 21 5.6 21.8 11.3 43.6 16.5 63.9 13 50.4 21.5 83.4 23.6 91.7 10 40.4 16.4 51.6 40.4 68.8 24.8 17.8 76.8 53.6 86.5 59.8 1.2.8 2.5 1.6 4.1 2.7.6.4 3.2 2.2 3.9 2.7 4 2.8 6.7 4.4 9.3 5.6 2.2 1.1 4 1.5 5.1 1.5 1.2 0 2.9-.5 5.1-1.5 2.5-1.2 5.2-2.9 9.2-5.6.7-.5 3.4-2.3 4-2.7 1.6-1.1 2.9-2 4.1-2.7 9.7-6.2 61.7-42 86.5-59.8 24-17.2 30.4-28.4 40.4-68.8 2.1-8.3 10.6-41.4 23.5-91.4 5.4-20.7 11-42.5 16.6-64.3 2-7.6 3.8-14.7 5.4-21 .8-2.9.9-3.4 1.3-4.8l-13.4-39c-.8-2.4-.8-5.1.2-7.5l8.9-22.2c-1.5-1.6-3.1-3.3-4.8-5.1-7.2-7.7-14.9-15.6-22.5-23.4-3.7-3.8-9.4-6.1-16.8-7-6.8-.8-14.5-.3-21.9 1-1.7.3-3.2.6-4.6.9-.8.2-1.3.3-1.5.4-3.9 1.1-8-.2-10.6-3.2l-39.3-45.5ZM512 584.7c2.8 0 21 6.5 35.6 14.2 14.6 7.7 25.2 13.1 28.5 15.3 3.4 2.1 1.3 6.2-1.8 8.4s-44.5 34.9-48.5 38.5c-4 3.6-9.9 9.6-13.9 9.6s-9.9-6-13.9-9.6c-4-3.6-45.4-36.2-48.5-38.5-3.1-2.2-5.1-6.3-1.8-8.4 3.4-2.2 14-7.6 28.5-15.3 14.8-7.7 33-14.2 35.8-14.2Zm.1-232.5c.7 0 8.8.2 20.6 4.2 12.4 4.2 25.9 9.5 32.1 9.5 6.2 0 52.3-9 52.3-9s54.6 67.2 54.6 81.6c0 14.4-6.9 18.2-13.8 25.6-6.9 7.5-37.1 40.1-40.9 44.3-3.9 4.2-11.9 10.5-7.2 22 4.7 11.4 11.7 26 4 40.7-7.8 14.8-21.1 24.6-29.7 23-8.5-1.6-28.6-12.3-36-17.2-7.4-4.9-30.8-24.5-30.8-32s24.2-21 28.6-24.1c4.5-3.1 24.8-14.9 25.2-19.6.4-4.7.3-6-5.8-17.5-6-11.5-16.8-26.9-15-37.1 1.8-10.2 19.3-15.5 31.7-20.3 12.4-4.8 36.4-13.8 39.4-15.2 3-1.4 2.2-2.7-6.8-3.6-9.1-.9-34.8-4.4-46.4-1.1-11.6 3.3-31.4 8.3-33.1 11-1.6 2.7-3 2.7-1.4 11.9 1.7 9.2 10.1 53.2 11 61 .8 7.8 2.4 13-5.8 14.9-8.3 1.9-22.2 5.3-27 5.3-4.8 0-18.7-3.4-27-5.3s-6.7-7.1-5.8-14.9c.8-7.8 9.3-51.9 11-61 1.6-9.2.2-9.3-1.4-11.9-1.6-2.7-21.4-7.7-33.1-11-11.6-3.3-37.4.2-46.4 1.1-9.1.9-9.8 2.2-6.8 3.6 3 1.4 27 10.5 39.4 15.2 12.5 4.8 29.9 10.1 31.7 20.3 1.8 10.2-9 25.6-15 37.1s-6.2 12.9-5.8 17.5c.4 4.6 20.8 16.5 25.2 19.6 4.5 3.1 28.6 16.6 28.6 24.1s-23.4 27.2-30.8 32c-7.4 4.9-27.4 15.6-36 17.2-8.5 1.6-21.9-8.2-29.7-23-7.8-14.8-.8-29.3 4-40.7 4.8-11.4-3.3-17.8-7.2-22-3.9-4.2-34-36.8-40.9-44.3-6.9-7.5-13.8-11.3-13.8-25.6 0-14.4 54.6-81.6 54.6-81.6s46.1 9 52.3 9c6.2 0 19.7-5.3 32.1-9.5 12.6-4.2 20.9-4.2 21-4.2Z" fill="#fff"/></g><defs><clipPath id="a"><path fill="#fff" d="M0 0h1024v1024H0z"/></clipPath></defs></svg>

<svg width="1024" height="1024" viewBox="0 0 1024 1024" fill="none" xmlns="http://www.w3.org/2000/svg">
<g clip-path="url(#clip0_2_1722)">
<path d="M512 1024C794.77 1024 1024 794.77 1024 512C1024 229.23 794.77 0 512 0C229.23 0 0 229.23 0 512C0 794.77 229.23 1024 512 1024Z" fill="#FF837D"/>
<path d="M586.5 266.2C589.5 266.2 592.4 267.5 594.3 269.8L632.7 314.1L634.2 313.8C643.4 312.2 653 311.6 662.1 312.6C673.8 314 683.8 318.1 691.2 325.6C699 333.5 706.7 341.6 714 349.4C716.6 352.1 718.9 354.6 721 356.9C721.7 357.7 722.4 358.4 722.9 359C726.3 362.8 727.1 367.2 725.6 371L715.7 395.8L728.9 434.2C729.6 436.2 729.7 438.4 729.1 440.4C729 440.8 729 440.8 728.6 442.5C728 444.9 728 444.9 727.1 448.4C725.5 454.7 723.6 461.8 721.7 469.4C716.1 491.2 710.4 513 705.2 533.3C692.2 583.5 683.7 616.6 681.7 624.9C670.5 669.8 661.7 685.4 633.1 705.9C608 723.9 555.7 759.9 545.7 766.3C544.7 766.9 543.7 767.6 542.3 768.6C541.8 769 539.1 770.8 538.3 771.3C533.4 774.7 529.9 776.8 526.2 778.6C521.4 780.8 516.9 782.1 512.2 782.1C507.6 782.1 503 780.8 498.2 778.6C494.4 776.8 491 774.7 486.1 771.3C485.3 770.8 482.7 768.9 482.1 768.6C480.7 767.6 479.6 766.9 478.7 766.3C468.6 759.9 416.3 723.8 391.3 705.9C362.7 685.4 353.8 669.8 342.7 624.9C334.896 594.493 327.062 564.093 319.2 533.7C313.8 513 308.2 491.2 302.6 469.4C300.6 461.8 298.8 454.7 297.1 448.4C296.2 444.9 296.2 444.9 295.6 442.5C295.2 440.8 295.2 440.8 295.1 440.4C294.6 438.3 294.7 436.2 295.3 434.2L308.5 395.8L298.6 371C297.1 367.2 297.9 362.8 300.6 359.8C301.8 358.5 302.5 357.8 303.2 357C305.3 354.8 307.6 352.3 310.2 349.5C317.5 341.7 325.2 333.6 333 325.7C340.4 318.1 350.4 314.1 362.1 312.7C371.2 311.6 380.8 312.2 390 313.9L391.5 314.2L429.9 269.9C431.9 267.6 434.7 266.3 437.7 266.3H586.5V266.2ZM581.8 287.4H442.2L402.9 332.9C400.3 336 396.1 337.2 392.3 336.1C392.1 336 391.6 335.9 390.8 335.7C389.5 335.4 387.9 335.1 386.2 334.8C378.8 333.5 371.2 333 364.3 333.8C356.9 334.7 351.2 337 347.5 340.8C339.9 348.6 332.2 356.5 325 364.2C323.3 366 321.7 367.7 320.2 369.3L329.1 391.5C330.1 393.9 330.1 396.6 329.3 399L315.9 438.1C316.3 439.5 316.4 440 317.2 442.9C318.8 449.2 320.7 456.3 322.6 463.9C328.2 485.7 333.9 507.5 339.1 527.8C352.1 578.2 360.6 611.2 362.7 619.5C372.7 659.9 379.1 671.1 403.1 688.3C427.9 706.1 479.9 741.9 489.6 748.1C490.8 748.9 492.1 749.7 493.7 750.8C494.3 751.2 496.9 753 497.6 753.5C501.6 756.3 504.3 757.9 506.9 759.1C509.1 760.2 510.9 760.6 512 760.6C513.2 760.6 514.9 760.1 517.1 759.1C519.6 757.9 522.3 756.2 526.3 753.5C527 753 529.7 751.2 530.3 750.8C531.9 749.7 533.2 748.8 534.4 748.1C544.1 741.9 596.1 706.1 620.9 688.3C644.9 671.1 651.3 659.9 661.3 619.5C663.4 611.2 671.9 578.1 684.8 528.1C690.2 507.4 695.8 485.6 701.4 463.8C703.4 456.2 705.2 449.1 706.8 442.8C707.6 439.9 707.7 439.4 708.1 438L694.7 399C693.9 396.6 693.9 393.9 694.9 391.5L703.8 369.3C702.3 367.7 700.7 366 699 364.2C691.8 356.5 684.1 348.6 676.5 340.8C672.8 337 667.1 334.7 659.7 333.8C652.9 333 645.2 333.5 637.8 334.8C636.1 335.1 634.6 335.4 633.2 335.7C632.4 335.9 631.9 336 631.7 336.1C627.8 337.2 623.7 335.9 621.1 332.9L581.8 287.4ZM512 584.7C514.8 584.7 533 591.2 547.6 598.9C562.2 606.6 572.8 612 576.1 614.2C579.5 616.3 577.4 620.4 574.3 622.6C571.2 624.8 529.8 657.5 525.8 661.1C521.8 664.7 515.9 670.7 511.9 670.7C507.9 670.7 502 664.7 498 661.1C494 657.5 452.6 624.9 449.5 622.6C446.4 620.4 444.4 616.3 447.7 614.2C451.1 612 461.7 606.6 476.2 598.9C491 591.2 509.2 584.7 512 584.7ZM512.1 352.2C512.8 352.2 520.9 352.4 532.7 356.4C545.1 360.6 558.6 365.9 564.8 365.9C571 365.9 617.1 356.9 617.1 356.9C617.1 356.9 671.7 424.1 671.7 438.5C671.7 452.9 664.8 456.7 657.9 464.1C651 471.6 620.8 504.2 617 508.4C613.1 512.6 605.1 518.9 609.8 530.4C614.5 541.8 621.5 556.4 613.8 571.1C606 585.9 592.7 595.7 584.1 594.1C575.6 592.5 555.5 581.8 548.1 576.9C540.7 572 517.3 552.4 517.3 544.9C517.3 537.4 541.5 523.9 545.9 520.8C550.4 517.7 570.7 505.9 571.1 501.2C571.5 496.5 571.4 495.2 565.3 483.7C559.3 472.2 548.5 456.8 550.3 446.6C552.1 436.4 569.6 431.1 582 426.3C594.4 421.5 618.4 412.5 621.4 411.1C624.4 409.7 623.6 408.4 614.6 407.5C605.5 406.6 579.8 403.1 568.2 406.4C556.6 409.7 536.8 414.7 535.1 417.4C533.5 420.1 532.1 420.1 533.7 429.3C535.4 438.5 543.8 482.5 544.7 490.3C545.5 498.1 547.1 503.3 538.9 505.2C530.6 507.1 516.7 510.5 511.9 510.5C507.1 510.5 493.2 507.1 484.9 505.2C476.6 503.3 478.2 498.1 479.1 490.3C479.9 482.5 488.4 438.4 490.1 429.3C491.7 420.1 490.3 420 488.7 417.4C487.1 414.7 467.3 409.7 455.6 406.4C444 403.1 418.2 406.6 409.2 407.5C400.1 408.4 399.4 409.7 402.4 411.1C405.4 412.5 429.4 421.6 441.8 426.3C454.3 431.1 471.7 436.4 473.5 446.6C475.3 456.8 464.5 472.2 458.5 483.7C452.5 495.2 452.3 496.6 452.7 501.2C453.1 505.8 473.5 517.7 477.9 520.8C482.4 523.9 506.5 537.4 506.5 544.9C506.5 552.4 483.1 572.1 475.7 576.9C468.3 581.8 448.3 592.5 439.7 594.1C431.2 595.7 417.8 585.9 410 571.1C402.2 556.3 409.2 541.8 414 530.4C418.8 519 410.7 512.6 406.8 508.4C402.9 504.2 372.8 471.6 365.9 464.1C359 456.6 352.1 452.8 352.1 438.5C352.1 424.1 406.7 356.9 406.7 356.9C406.7 356.9 452.8 365.9 459 365.9C465.2 365.9 478.7 360.6 491.1 356.4C503.7 352.2 512 352.2 512.1 352.2Z" fill="white"/>
</g>
<defs>
<clipPath id="clip0_2_1722">
<rect width="1024" height="1024" fill="white"/>
</clipPath>
</defs>
</svg>
